src/public/images/logo-ball.svg

<svg width="28" height="28" viewBox="0 0 28 28" fill="none" xmlns="http://www.w3.org/2000/svg">
<g clip-path="url(#clip0_29_2749)">
<path d="M14.0275 24.5462L13.7775 24.5362C10.6254 24.4618 7.62774 23.156 5.42644 20.8987C3.22515 18.6413 1.99521 15.6117 2.00001 12.4587C2.00001 5.79625 7.41126 0.375 14.0613 0.375C20.7113 0.375 26.125 5.79625 26.125 12.4587C26.125 15.1475 25.1638 17.8088 23.2688 20.37C22.0402 22.004 20.5896 23.4585 18.9588 24.6912C18.5088 25.0375 18.0425 25.365 17.5763 25.6663C16.4539 26.3903 15.2657 27.0068 14.0275 27.5075V24.5462Z" fill="#262541"/>
<path d="M14.0613 0.625C17.196 0.631289 20.2002 1.88071 22.415 4.09918C24.6297 6.31765 25.874 9.32401 25.875 12.4587C25.875 15.0925 24.93 17.7087 23.0675 20.2213C21.8537 21.8368 20.4198 23.2745 18.8075 24.4925C18.3625 24.8337 17.9025 25.1587 17.44 25.4562C16.4359 26.1051 15.3778 26.6663 14.2775 27.1338V24.78V24.2987L13.7888 24.2875C10.7008 24.2159 7.76365 22.9376 5.60679 20.7266C3.44993 18.5155 2.24493 15.5476 2.25001 12.4587C2.25001 5.93375 7.54876 0.625 14.0613 0.625ZM14.0613 0.125C10.8185 0.130184 7.70821 1.41239 5.40388 3.694C3.09955 5.97562 1.7866 9.07302 1.74929 12.3156C1.71198 15.5582 2.95332 18.685 5.20454 21.019C7.45577 23.353 10.5357 24.7065 13.7775 24.7862V27.875C15.1542 27.3457 16.4724 26.6754 17.7113 25.875C18.1913 25.5667 18.6579 25.2379 19.1113 24.8888C20.7593 23.6388 22.2262 22.1664 23.47 20.5138C25.2113 18.1663 26.375 15.43 26.375 12.4587C26.3765 10.8403 26.0591 9.23746 25.4411 7.7417C24.823 6.24594 23.9164 4.88657 22.7729 3.74125C21.6294 2.59592 20.2715 1.68706 18.7768 1.06658C17.282 0.4461 15.6797 0.126149 14.0613 0.125V0.125Z" fill="white"/>
<path fill-rule="evenodd" clip-rule="evenodd" d="M14.0625 5.37256C10.1551 5.37256 6.98749 8.54014 6.98749 12.4476C6.98749 16.355 10.1551 19.5226 14.0625 19.5226C17.9699 19.5226 21.1375 16.355 21.1375 12.4476C21.1375 8.54014 17.9699 5.37256 14.0625 5.37256ZM6.36249 12.4476C6.36249 8.19497 9.8099 4.74756 14.0625 4.74756C18.3151 4.74756 21.7625 8.19497 21.7625 12.4476C21.7625 16.7002 18.3151 20.1476 14.0625 20.1476C9.8099 20.1476 6.36249 16.7002 6.36249 12.4476Z" fill="white"/>
<path d="M17.6513 9.62503C16.9344 8.71293 15.8969 8.10818 14.75 7.93378V5.20878L16.9575 3.97253C18.0653 4.34892 19.0875 4.94116 19.965 5.71503C19.98 6.5642 19.9942 7.4142 20.0075 8.26503L17.6513 9.62503Z" fill="white"/>
<path d="M16.9813 4.25004C17.9832 4.60537 18.9108 5.14272 19.7175 5.83504C19.73 6.59838 19.7425 7.36213 19.755 8.12629L17.7088 9.30879C17.0088 8.49209 16.0549 7.93396 15 7.72379V5.35504L16.9813 4.25004ZM16.9312 3.70504L14.5 5.06254V8.15504C15.1126 8.21685 15.7049 8.40928 16.2368 8.71935C16.7688 9.02942 17.2281 9.44994 17.5838 9.95254L20.26 8.40754C20.245 7.47254 20.2296 6.53754 20.2138 5.60254L20.2075 5.59504C19.2603 4.74424 18.1468 4.09938 16.9375 3.70129L16.9312 3.70504Z" fill="white"/>
<path d="M18.305 14.1312C18.7272 13.0647 18.7334 11.8784 18.3225 10.8075L20.6912 9.43872L22.8475 10.7162C22.9656 11.3071 23.0226 11.9086 23.0175 12.5112C23.014 13.0843 22.9549 13.6557 22.8412 14.2175L20.6662 15.5L18.305 14.1312Z" fill="white"/>
<path d="M20.69 9.72874L22.625 10.875C22.7243 11.4147 22.7725 11.9625 22.7688 12.5112C22.7657 13.031 22.7155 13.5493 22.6188 14.06L22.1525 14.3337L21.505 14.7087L21.1738 14.905L20.6663 15.2025L18.615 14.0162C18.9573 13.0127 18.9608 11.9245 18.625 10.9187L20.6863 9.72874M20.6863 9.14874L18.0075 10.7C18.2538 11.2577 18.3795 11.8611 18.3762 12.4707C18.373 13.0804 18.241 13.6825 17.9888 14.2375L20.6675 15.785L21.7575 15.1437L23.0625 14.375C23.3336 13.1164 23.3362 11.8147 23.07 10.555L20.695 9.14624L20.6863 9.14874Z" fill="white"/>
<path d="M14.75 19.6825V16.9588C15.8816 16.7878 16.9077 16.198 17.625 15.3063L19.9875 16.67L19.9638 17.795L19.935 19.21C19.0659 19.9681 18.0576 20.5497 16.9663 20.9225L14.75 19.6825Z" fill="white"/>
<path d="M17.6763 15.625L19.73 16.81L19.7213 17.185L19.7088 17.785C19.7088 17.9587 19.7 18.245 19.6938 18.535C19.6938 18.7312 19.6863 18.9287 19.6825 19.0912C19.293 19.4218 18.8747 19.7167 18.4325 19.9725C17.9706 20.2418 17.4848 20.4678 16.9813 20.6475L15.9638 20.0762L15 19.5362V17.1687C16.0378 16.9631 16.9786 16.4204 17.6763 15.625ZM17.5513 14.9775C17.1954 15.4694 16.7396 15.8806 16.2138 16.1841C15.688 16.4876 15.104 16.6766 14.5 16.7387V19.83L16.9362 21.195C18.1342 20.7998 19.2377 20.1615 20.1775 19.32C20.185 18.9675 20.2013 18.1487 20.2088 17.7962C20.215 17.5112 20.2275 16.9212 20.2363 16.5225L17.555 14.975L17.5513 14.9775Z" fill="white"/>
<path d="M11.17 20.9263C10.0802 20.5558 9.07281 19.9772 8.20372 19.2226L8.17497 17.8063C8.16747 17.4801 8.15872 17.0563 8.15247 16.6813L10.5125 15.3151C11.2311 16.2042 12.2569 16.7916 13.3875 16.9613V19.6826L11.17 20.9263Z" fill="white"/>
<path d="M10.4575 15.6362C11.1589 16.4288 12.1015 16.9686 13.14 17.1725V19.5362L11.14 20.6525C10.1556 20.3037 9.24252 19.7794 8.44502 19.105C8.44502 18.9375 8.44502 18.755 8.43502 18.5725C8.42877 18.3012 8.42377 18.0275 8.41877 17.7987C8.41877 17.5162 8.40502 17.1587 8.39877 16.8212L10.4513 15.6362M10.5763 14.99L7.90002 16.5362C7.90752 16.9475 7.91752 17.4425 7.92502 17.8112C7.93377 18.26 7.94752 18.89 7.95627 19.3375C8.43454 19.7636 8.95662 20.1377 9.51377 20.4537C10.0473 20.7609 10.6112 21.0122 11.1963 21.2037L13.64 19.8362V16.74C13.035 16.6808 12.4494 16.4942 11.9216 16.1926C11.3937 15.891 10.9357 15.4812 10.5775 14.99H10.5763Z" fill="white"/>
<path d="M5.28129 14.22C5.0511 13.0628 5.04898 11.8718 5.27504 10.7138L6.54379 9.96377L7.44129 9.43127L9.80628 10.7938C9.38866 11.873 9.39491 13.0702 9.82378 14.145L7.46629 15.5L5.28129 14.22Z" fill="white"/>
<path d="M7.44247 9.71745L9.49997 10.9062C9.15882 11.9208 9.1641 13.0199 9.51497 14.0312L7.46747 15.2137L6.52497 14.6587L5.49997 14.0625C5.39005 13.4741 5.34104 12.8759 5.35372 12.2775C5.36501 11.8068 5.41391 11.3378 5.49997 10.875L6.67122 10.18L7.44372 9.7212M7.44372 9.1412C6.64747 9.6137 5.84872 10.0862 5.05497 10.5587C4.79346 11.8206 4.79602 13.1229 5.06247 14.3837L7.46872 15.7987L10.14 14.25C9.8847 13.6912 9.75134 13.0846 9.74875 12.4703C9.74617 11.8561 9.87442 11.2483 10.125 10.6875L7.43997 9.13745L7.44372 9.1412Z" fill="white"/>
<path d="M8.125 8.24997C8.125 8.24997 8.14125 7.25747 8.14375 7.11872C8.14375 6.81872 8.16125 6.08497 8.1675 5.70122C9.04682 4.9306 10.0703 4.34215 11.1788 3.96997L13.3913 5.20872V7.93122C12.2424 8.10092 11.2018 8.70326 10.4825 9.61497L8.125 8.24997Z" fill="white"/>
<path d="M11.1538 4.24251L12.1763 4.81501L13.14 5.35626V7.72001C12.0847 7.92589 11.1288 8.47954 10.425 9.29251L8.37503 8.11251C8.37503 7.99751 8.37503 7.87876 8.37503 7.76251C8.37503 7.51251 8.38253 7.26251 8.38503 7.13001C8.38503 6.85626 8.40128 6.22251 8.40753 5.82126C9.21646 5.12833 10.1479 4.59287 11.1538 4.24251ZM11.205 3.69751C9.98884 4.09088 8.86942 4.73663 7.92003 5.59251C7.92003 5.92501 7.90128 6.78751 7.89503 7.12001C7.89503 7.38626 7.88003 7.99501 7.87378 8.39751L10.5488 9.94126C10.9061 9.43937 11.367 9.01999 11.9003 8.71141C12.4336 8.40283 13.0268 8.21225 13.64 8.15251V5.06251L11.205 3.69751Z" fill="white"/>
</g>
<defs>
<clipPath id="clip0_29_2749">
<rect width="24.625" height="27.75" fill="white" transform="translate(1.75 0.125)"/>
</clipPath>
</defs>
</svg>

<svg xmlns="http://www.w3.org/2000/svg" width="28" height="28" fill="none"><g clip-path="url(#a)"><path fill="#262541" d="m14.027 24.546-.25-.01A12.062 12.062 0 0 1 2 12.46C2 5.796 7.411.375 14.061.375s12.064 5.421 12.064 12.084c0 2.689-.961 5.35-2.856 7.911a21.96 21.96 0 0 1-4.31 4.321 21.229 21.229 0 0 1-4.931 2.816v-2.96Z"/><path fill="#fff" d="M14.061.625a11.838 11.838 0 0 1 11.814 11.834c0 2.633-.945 5.25-2.808 7.762a21.657 21.657 0 0 1-4.26 4.271 20.844 20.844 0 0 1-4.53 2.641V24.3l-.488-.011A11.813 11.813 0 0 1 2.25 12.458C2.25 5.935 7.549.626 14.061.626Zm0-.5a12.333 12.333 0 0 0-.284 24.661v3.089a21.403 21.403 0 0 0 5.334-2.986 22.391 22.391 0 0 0 4.359-4.375c1.741-2.348 2.905-5.084 2.905-8.055A12.323 12.323 0 0 0 14.061.125Z"/><path fill="#fff" fill-rule="evenodd" d="M14.063 5.373a7.075 7.075 0 1 0 0 14.15 7.075 7.075 0 0 0 0-14.15Zm-7.7 7.075a7.7 7.7 0 1 1 15.4 0 7.7 7.7 0 0 1-15.4 0Z" clip-rule="evenodd"/><path fill="#fff" d="M17.651 9.625a4.563 4.563 0 0 0-2.901-1.691V5.209l2.207-1.236a8.853 8.853 0 0 1 3.008 1.742c.015.85.03 1.7.043 2.55l-2.357 1.36Z"/><path fill="#fff" d="M16.981 4.25a8.631 8.631 0 0 1 2.736 1.585l.038 2.291-2.046 1.183A4.804 4.804 0 0 0 15 7.724V5.355l1.981-1.105Zm-.05-.545L14.5 5.063v3.092a4.307 4.307 0 0 1 3.084 1.798l2.676-1.545-.046-2.805-.006-.008a9.197 9.197 0 0 0-3.27-1.894l-.007.004ZM18.305 14.131a4.576 4.576 0 0 0 .018-3.324L20.69 9.44l2.157 1.277a8.875 8.875 0 0 1-.006 3.501L20.665 15.5l-2.361-1.369Z"/><path fill="#fff" d="m20.69 9.729 1.935 1.146a8.717 8.717 0 0 1-.006 3.185l-.466.274-.648.375-.331.196-.508.298-2.051-1.187a4.844 4.844 0 0 0 .01-3.097l2.061-1.19m0-.58L18.008 10.7a4.325 4.325 0 0 1-.02 3.538l2.68 1.547 1.09-.641 1.305-.769a9.154 9.154 0 0 0 .007-3.82l-2.375-1.409-.009.003ZM14.75 19.683v-2.724a4.565 4.565 0 0 0 2.875-1.653l2.363 1.364-.024 1.125-.029 1.415a8.886 8.886 0 0 1-2.969 1.712l-2.216-1.24Z"/><path fill="#fff" d="m17.676 15.625 2.054 1.185-.009.375-.012.6c0 .174-.009.46-.015.75 0 .196-.008.394-.011.556-.39.33-.808.626-1.25.881-.462.27-.948.496-1.452.675l-1.017-.57-.964-.54v-2.368a4.801 4.801 0 0 0 2.676-1.544Zm-.125-.648A4.311 4.311 0 0 1 14.5 16.74v3.091l2.436 1.365a9.161 9.161 0 0 0 3.241-1.875l.032-1.524.027-1.273-2.681-1.548-.004.002ZM11.17 20.926a8.888 8.888 0 0 1-2.966-1.703l-.029-1.417c-.008-.326-.016-.75-.023-1.125l2.36-1.366a4.569 4.569 0 0 0 2.875 1.646v2.722l-2.217 1.243Z"/><path fill="#fff" d="M10.457 15.636a4.823 4.823 0 0 0 2.683 1.537v2.363l-2 1.116a8.645 8.645 0 0 1-2.695-1.547c0-.168 0-.35-.01-.532l-.016-.774c0-.283-.014-.64-.02-.978l2.052-1.185m.125-.646L7.9 16.536l.025 1.275c.009.449.023 1.079.031 1.526.479.427 1 .8 1.558 1.117a8.953 8.953 0 0 0 1.682.75l2.444-1.368V16.74a4.31 4.31 0 0 1-3.063-1.75ZM5.281 14.22a9.067 9.067 0 0 1-.006-3.506l1.269-.75.897-.533 2.365 1.363a4.581 4.581 0 0 0 .018 3.351L7.466 15.5l-2.185-1.28Z"/><path fill="#fff" d="m7.442 9.717 2.058 1.19a4.834 4.834 0 0 0 .015 3.124l-2.048 1.183-.942-.555-1.025-.597a8.715 8.715 0 0 1 0-3.187l1.171-.695.773-.459m0-.58c-.797.473-1.595.945-2.389 1.418a9.336 9.336 0 0 0 .007 3.825l2.407 1.415 2.671-1.549a4.326 4.326 0 0 1-.015-3.563L7.44 9.137l.004.004ZM8.125 8.25l.019-1.131c0-.3.017-1.034.024-1.418a8.836 8.836 0 0 1 3.01-1.731l2.213 1.239V7.93a4.552 4.552 0 0 0-2.909 1.684L8.125 8.25Z"/><path fill="#fff" d="m11.154 4.243 1.022.572.964.541V7.72a4.81 4.81 0 0 0-2.715 1.573l-2.05-1.18v-.35c0-.25.008-.5.01-.633 0-.274.016-.907.023-1.309a8.539 8.539 0 0 1 2.746-1.578Zm.051-.545A9.079 9.079 0 0 0 7.92 5.593c0 .332-.019 1.195-.025 1.527 0 .266-.015.875-.021 1.278l2.675 1.543a4.307 4.307 0 0 1 3.091-1.788v-3.09l-2.435-1.365Z"/></g><defs><clipPath id="a"><path fill="#fff" d="M1.75.125h24.625v27.75H1.75z"/></clipPath></defs></svg>
